X:1
T:Title
%%score { 1 | 2 }
L:1/8
M:4/4
K:G
V:1 treble nm="Grand Piano"
V:2 treble 
V:1
 z4 z2[Q:1/4=100] DD | GGBA G2 cc | BBGA B2 z2 | d3 B GGFG | [GB]4 [FA]2 DD | %5
[M:3/4] GG [DFB][CFA] [B,G]2 |[M:1/4] [A,DF][G,DG] |[M:4/4] [EA][EG]EG D2 z2 | d3 B GGAB | %9
 [FA]4 G2 z2 | d3 d edGc | B4 G2 z2 | [FA]3 [GB] [Ac][Ac][GB][FA] | B6 z2 | d3 d edBG | %15
 [Ec]3 E ED z2 | d3 B GGAB |[M:3/4] [FA]4 G2 |] %18
V:2
 z4 z2 [G,B,][G,B,] | [G,B,D][G,B,D][G,DG][G,CF] [G,B,]2 [G,EG][G,EG] | %2
 [G,DG][G,DG][G,B,][G,CG] [G,DG]2 z2 | [G,B,G]3 [G,DG] [G,B,D][B,D][A,CD][K:bass][G,B,D] | %4
 [D,D]4 [D,D]2 [F,C][F,C] |[M:3/4] [G,B,D][G,B,D] D,D, G,,2 |[M:1/4] A,,B,, | %7
[M:4/4] [C,G,][C,G,][C,G,C][E,G,C] [G,B,]2 z2 | [G,B,G]3 [G,D] [G,B,D][G,B,D][G,CD][G,DG] | %9
 [D,C]4 [G,B,]2 z2 | [G,B,G]3 [G,B,G] [G,CG][G,B,G][G,B,][G,EG] | [G,DG]4 [G,B,D]2 z2 | %12
 [D,D]3 [D,D] [D,D][D,D][D,D][D,D] | [G,DG]6 z2 | [G,B,G]3 [G,B,G] [G,CG][G,B,G][G,DG][G,B,=F] | %15
 [C,G,]3 [C,G,C] [G,C][G,B,] z2 | [G,B,G]3 [G,D] [G,B,D][G,B,D][G,CD][G,DG] | %17
[M:3/4][K:bass] [D,C]4 [G,B,]2 |] %18

